X:647
T: ES SUNGEN DREI ENGEL
N: E2031
O: Europa, Mitteleuropa, Deutschland, Rheinland; Hessen; Sachsen
R: geistlich, Wallfahrts - Lied
M: 3/4
L: 1/8
K: F
FA | c3dcB | A3G
Ac | B2B2A2 | G4
AG | F2F2G2 | A2A2
Bd | c2A2G2 | F4

